assets/icons/18px/outline/outbox-tray-18px.svg

<svg fill="none" height="18" width="18" xmlns="http://www.w3.org/2000/svg"><path d="m9 2.5v6.5m0 0-1.75-1.4m1.75 1.4 1.75-1.4" stroke="#fff" stroke-linecap="round" stroke-linejoin="round"/><path d="m2.5 10.5h3.513c.253 0 .38 0 .502.03l.049.015c.12.037.228.103.444.236.921.563 1.382.845 1.89.871.068.004.136.004.204 0 .508-.026.969-.307 1.89-.871.216-.133.324-.2.444-.236l.05-.014c.12-.031.247-.031.502-.031h3.512v3c0 .943 0 1.414-.293 1.707s-.764.293-1.707.293h-9c-.943 0-1.414 0-1.707-.293s-.293-.764-.293-1.707z" stroke="#fff"/><path d="m2 10.5a.5.5 0 0 0 1 0zm13 0a.5.5 0 0 0 1 0zm-3-6a.5.5 0 0 0 0 1zm-6 1a.5.5 0 0 0 0-1zm-3.44 2.522.47.17zm12.88 0 .47-.17zm-10.396-2.928-.212-.452zm8.172.946 1.436 1.724.769-.64-1.437-1.724zm-9.868 1.724 1.436-1.724-.768-.64-1.436 1.724.769.64zm-1.348.96v1.776h1v-1.776zm13 0v1.776h1v-1.776zm-3-3.224h.063v-1h-.063zm-6.063 0h.063v-1h-.063zm-3.358 1.624c-.206.248-.393.46-.49.727l.94.34c.024-.063.067-.125.319-.427zm.421 1.6c0-.393.007-.469.03-.532l-.94-.34c-.097.266-.09.549-.09.872zm11.652-.96c.252.302.295.364.318.428l.94-.34c-.096-.267-.283-.48-.49-.728zm1.348.96c0-.323.007-.606-.09-.873l-.94.34c.023.064.03.14.03.533zm-2.016-3.324c-.265-.318-.49-.606-.816-.758l-.424.905c.077.036.147.103.472.493zm-1.92.1c.507 0 .602.011.68.047l.424-.905c-.326-.153-.69-.142-1.105-.142v1zm-7.28.54c.325-.39.395-.457.472-.493l-.424-.905c-.326.152-.55.44-.816.758zm1.153-1.54c-.414 0-.779-.011-1.105.142l.424.905c.077-.036.173-.047.68-.047v-1z" fill="#fff"/></svg>

<svg fill="none" height="18" width="18" xmlns="http://www.w3.org/2000/svg"><path d="M9 2.5V9m0 0L7.25 7.6M9 9l1.75-1.4" stroke="currentColor" stroke-linecap="round" stroke-linejoin="round"/><path d="M2.5 10.5h3.513c.253 0 .38 0 .502.03l.049.015c.12.037.228.103.444.236.921.563 1.382.845 1.89.871.068.004.136.004.204 0 .508-.026.969-.307 1.89-.871.216-.133.324-.2.444-.236l.05-.014c.12-.031.247-.031.502-.031H15.5v3c0 .943 0 1.414-.293 1.707s-.764.293-1.707.293h-9c-.943 0-1.414 0-1.707-.293S2.5 14.443 2.5 13.5z" stroke="currentColor"/><path d="M2 10.5a.5.5 0 0 0 1 0zm13 0a.5.5 0 0 0 1 0zm-3-6a.5.5 0 0 0 0 1zm-6 1a.5.5 0 0 0 0-1zM2.56 8.022l.47.17zm12.88 0l.47-.17zM5.044 5.094l-.212-.452zm8.172.946l1.436 1.724.769-.64L13.984 5.4zM3.348 7.764L4.784 6.04l-.768-.64L2.58 7.124l.769.64zM2 8.724V10.5h1V8.724zm13 0V10.5h1V8.724zM12 5.5h.063v-1H12zm-6.063 0H6v-1h-.063zM2.579 7.124c-.206.248-.393.46-.49.727l.94.34c.024-.063.067-.125.319-.427zM3 8.724c0-.393.007-.469.03-.532l-.94-.34c-.097.266-.09.549-.09.872zm11.652-.96c.252.302.295.364.318.428l.94-.34c-.096-.267-.283-.48-.49-.728zm1.348.96c0-.323.007-.606-.09-.873l-.94.34c.023.064.03.14.03.533zM13.984 5.4c-.265-.318-.49-.606-.816-.758l-.424.905c.077.036.147.103.472.493zm-1.92.1c.507 0 .602.011.68.047l.424-.905c-.326-.153-.69-.142-1.105-.142v1zm-7.28.54c.325-.39.395-.457.472-.493l-.424-.905c-.326.152-.55.44-.816.758zM5.937 4.5c-.414 0-.779-.011-1.105.142l.424.905c.077-.036.173-.047.68-.047v-1z" fill="currentColor"/></svg>
